X:708
T:Vamos danzar
R:Danza
C:Tradicional
S:Msica Tradicional Asturiana, (C) Tello & Tito. Asturies, 2001.
S:http://pagina.de/MusTradAst <telloytito@asturies.org>
N:Intervienen solamente mujeres.
N:Se la llama "danza moderna".
A:Asturies
O:Llamo (Riosa)
Z:Asturias, canciones
M:2/4
L:1/8
Q:1/4=100
K:C
|: GA Bc|d3 e|d2 c2|ce dc|
B3 A|G2 A2|Bd cB|A3 B|
A2 G2-|G2 z2 :|
W:Vamos danzar un pocu, (bis)
W:por costumbre que tenemos, (bis)
W:que la gente divertida
W:no por eso vale menos.
W:
